src/static/logos/fastly.svg

<?xml version="1.0" encoding="UTF-8" standalone="no"?>
<svg width="512px" height="199px" viewBox="0 0 512 199" version="1.1" xmlns="http://www.w3.org/2000/svg" xmlns:xlink="http://www.w3.org/1999/xlink" preserveAspectRatio="xMidYMid">
    <g>
        <path d="M348.443832,20.3483124 L348.443832,153.935945 L388.570661,153.935945 L388.570661,133.525132 L375.312437,133.525132 L375.312437,0 L348.440659,0.00317258293 L348.443832,20.3483124 Z M0,133.525132 L13.6405203,133.525132 L13.6405203,69.0750619 L0,69.0750619 L0,51.3504756 L13.6405203,49.1071422 L13.6405203,31.1649167 C13.6405203,9.43177181 18.3708415,0.000317258293 46.086526,0.000317258293 C52.0725555,0.000317258293 59.16772,0.884198864 65.3796373,2.00316887 L61.6975376,23.8502095 C57.4903754,23.1836498 55.4040848,23.0653125 52.7445086,23.0653125 C42.9799328,23.0653125 40.511346,24.0396127 40.511346,33.5802041 L40.511346,49.1071422 L60.78542,49.1071422 L60.78542,69.0750619 L40.511346,69.0750619 L40.511346,133.525132 L54.0097346,133.525132 L54.0097346,153.932772 L0,153.938483 L0,133.525132 Z M334.776345,127.074954 C330.572672,127.961691 326.895649,127.855092 324.237024,127.920447 C313.183745,128.192338 314.138693,124.558461 314.138693,114.13494 L314.138693,69.0750619 L335.179263,69.0750619 L335.179263,49.1071422 L314.138693,49.1071422 L314.138693,0 L287.266598,0 L287.266598,119.70663 C287.266598,143.209442 293.067031,153.935945 318.345538,153.935945 C324.332202,153.935945 332.558709,152.395339 338.770627,151.065075 L334.776345,127.074954 Z M253.724148,69.0385772 L253.724148,65.4637108 C245.595038,63.9811628 237.522718,63.9595892 233.143602,63.9595892 C220.638866,63.9595892 219.11444,70.5909221 219.11444,74.1854585 C219.11444,79.2707917 220.849526,82.0204694 234.396455,84.9823928 C254.198449,89.427816 274.085785,94.0661322 274.085785,118.620021 C274.085785,141.905828 262.10167,153.935945 236.875829,153.935945 C219.995467,153.935945 203.61669,150.312221 191.119886,147.140907 L191.119886,127.074954 L211.467881,127.074954 L211.456142,130.639668 C220.212471,132.330972 229.393609,132.161874 234.186747,132.161874 C247.524921,132.161874 249.682911,124.990567 249.682911,121.178074 C249.682911,115.88684 245.858046,113.345601 233.354896,110.81039 C209.799737,106.785652 191.105609,98.7434713 191.105609,74.816168 C191.105609,52.1683675 206.253106,43.2838662 231.479265,43.2838662 C248.569018,43.2838662 261.5636,45.934242 274.067384,49.1071422 L274.067384,69.0385772 L253.724148,69.0385772 Z M117.603208,127.014041 L117.603208,123.855417 L114.383988,123.855417 L114.383988,127.005157 C99.9626949,126.164423 88.4271833,114.577833 87.6746467,100.133063 L90.8745138,100.133063 L90.8745138,96.9138427 L87.6914614,96.9138427 C88.5464725,82.5693262 100.034395,71.0925074 114.383988,70.2558973 L114.383988,73.4221351 L117.603208,73.4221351 L117.603208,70.2470141 C131.748169,71.0030406 143.141549,82.0981976 144.372828,96.1118137 L144.372828,97.0353526 L141.14758,97.0353526 L141.14758,100.254255 L144.37378,100.254255 L144.374414,101.135916 C143.149163,115.156195 131.75261,126.257697 117.603208,127.014041 Z M171.253489,127.074954 L171.23604,43.4583583 L144.365848,43.4583583 L144.365848,51.2997143 C138.831595,47.979289 132.666949,45.6052452 126.096212,44.3882424 L126.248179,44.3882424 L126.248179,35.109389 L129.526726,35.109389 L129.526726,28.2851632 L102.470939,28.2851632 L102.470939,35.109389 L105.748852,35.109389 L105.748852,44.3882424 L105.9354,44.3882424 C80.2355742,49.1195153 60.7597221,71.6239151 60.7597221,98.6917582 C60.7597221,129.196778 85.488737,153.925793 115.993439,153.925793 C126.404587,153.925793 136.14061,151.04128 144.452777,146.033992 L149.293504,153.935945 L177.676066,153.935945 L177.676066,127.074954 L171.253489,127.074954 Z M456.578149,49.1071422 L512,49.1071422 L512,69.0557092 L498.751294,69.0557092 L464.763413,152.67516 C455.023583,176.164647 439.021075,198.273109 414.655638,198.273109 C408.662629,198.273109 400.686755,197.609087 395.156943,196.280092 L397.587142,171.89213 C401.137262,172.555834 405.785096,172.992699 408.224812,172.992699 C419.525553,172.992699 432.269818,165.990808 436.257755,153.800158 L401.819367,69.0557092 L388.570661,69.0557092 L388.570661,49.1071422 L444.021065,49.1071422 L444.021065,69.0557092 L430.775532,69.0557092 L450.286917,117.056572 L469.795129,69.0557092 L456.578149,69.0557092 L456.578149,49.1071422 Z M130.096839,86.6762348 L128.051792,84.6308706 L117.667294,93.6809807 C117.143183,93.4928465 116.582588,93.3856132 115.996612,93.3856132 C113.194269,93.3856132 110.925872,95.7206342 110.925872,98.5984842 C110.925872,101.479507 113.194269,103.814211 115.996612,103.814211 C118.797685,103.814211 121.071475,101.479507 121.071475,98.5984842 C121.071475,98.0521654 120.988671,97.5255167 120.836704,97.0302765 L130.096839,86.6762348" fill="#D52F2F"></path>
    </g>
</svg>

<svg width="512" height="199" xmlns="http://www.w3.org/2000/svg" preserveAspectRatio="xMidYMid"><path d="M348.444 20.348v133.588h40.127v-20.41h-13.259V0l-26.871.003.003 20.345zM0 133.525h13.64v-64.45H0V51.35l13.64-2.243V31.165C13.64 9.432 18.37 0 46.088 0c5.986 0 13.08.884 19.293 2.003L61.698 23.85c-4.208-.666-6.294-.785-8.953-.785-9.765 0-12.234.975-12.234 10.515v15.527h20.274v19.968H40.511v64.45H54.01v20.408L0 153.938v-20.413zm334.776-6.45c-4.203.887-7.88.78-10.539.845-11.053.272-10.098-3.362-10.098-13.785v-45.06h21.04V49.107h-21.04V0h-26.872v119.707c0 23.502 5.8 34.229 31.079 34.229 5.986 0 14.213-1.54 20.425-2.87l-3.995-23.991zm-81.052-58.036v-3.575c-8.129-1.483-16.201-1.504-20.58-1.504-12.505 0-14.03 6.63-14.03 10.225 0 5.086 1.736 7.835 15.282 10.797 19.802 4.446 39.69 9.084 39.69 33.638 0 23.286-11.984 35.316-37.21 35.316-16.88 0-33.26-3.624-45.756-6.795v-20.066h20.348l-.012 3.565c8.756 1.691 17.938 1.522 22.73 1.522 13.339 0 15.497-7.171 15.497-10.984 0-5.291-3.825-7.832-16.328-10.368-23.555-4.024-42.25-12.067-42.25-35.994 0-22.648 15.148-31.532 40.374-31.532 17.09 0 30.085 2.65 42.588 5.823V69.04h-20.343zm-136.12 57.975v-3.159h-3.22v3.15c-14.421-.84-25.957-12.427-26.71-26.872h3.2v-3.22h-3.183c.855-14.344 12.343-25.82 26.693-26.657v3.166h3.22v-3.175c14.144.756 25.538 11.851 26.769 25.865v.923h-3.225v3.22h3.226v.88c-1.225 14.021-12.621 25.123-26.77 25.879zm53.65.061l-.018-83.617h-26.87V51.3a54.923 54.923 0 00-18.27-6.912h.152V35.11h3.279v-6.824H102.47v6.824h3.278v9.28h.186c-25.7 4.73-45.175 27.235-45.175 54.303 0 30.505 24.729 55.234 55.233 55.234a54.974 54.974 0 0028.46-7.892l4.84 7.902h28.383v-26.861h-6.423zm285.324-77.968H512v19.949h-13.249l-33.988 83.62c-9.74 23.489-25.742 45.597-50.107 45.597-5.993 0-13.97-.664-19.5-1.993l2.431-24.388c3.55.664 8.198 1.1 10.638 1.1 11.3 0 24.045-7.001 28.033-19.192l-34.439-84.744h-13.248V49.107h55.45v19.949h-13.245l19.51 48 19.51-48h-13.218V49.107zm-326.481 37.57l-2.045-2.046-10.385 9.05a4.93 4.93 0 00-1.67-.295c-2.803 0-5.071 2.335-5.071 5.212 0 2.882 2.268 5.216 5.07 5.216 2.802 0 5.075-2.334 5.075-5.216a5.34 5.34 0 00-.234-1.568l9.26-10.354" fill="#D52F2F"/></svg>
